svg/free/smile.svg

<svg version="1.1" xmlns="http://www.w3.org/2000/svg" width="24" height="24" viewBox="0 0 24 24">
<title>smile</title>
<path d="M12 0.75c-6.213 0-11.25 5.037-11.25 11.25s5.037 11.25 11.25 11.25 11.25-5.037 11.25-11.25-5.037-11.25-11.25-11.25zM18.894 18.894c-1.757 1.752-4.182 2.835-6.859 2.835-5.365 0-9.715-4.349-9.715-9.715s4.349-9.715 9.715-9.715c5.365 0 9.715 4.349 9.715 9.715 0 1.365-0.282 2.664-0.79 3.843l0.024-0.063c-0.517 1.205-1.222 2.234-2.090 3.099l-0 0z"></path>
<path d="M7.125 9.375h1.875v1.875h-1.875v-1.875z"></path>
<path d="M15 9.375h1.875v1.875h-1.875v-1.875z"></path>
<path d="M15.857 14.4c-0.591 1.462-1.999 2.475-3.643 2.475-0.004 0-0.009 0-0.013-0h-0.402c-0.004 0-0.008 0-0.013 0-1.644 0-3.052-1.013-3.634-2.449l-0.009-0.026-0.060-0.15h-1.616l0.283 0.707c0.824 2.020 2.773 3.418 5.049 3.418h0.403c2.276 0 4.225-1.398 5.035-3.382l0.013-0.036 0.283-0.707h-1.616z"></path>
</svg>

<svg xmlns="http://www.w3.org/2000/svg" width="24" height="24" viewBox="0 0 24 24"><path d="M12 .75C5.787.75.75 5.787.75 12S5.787 23.25 12 23.25 23.25 18.213 23.25 12 18.213.75 12 .75zm6.894 18.144a9.684 9.684 0 01-6.859 2.835c-5.365 0-9.715-4.349-9.715-9.715s4.349-9.715 9.715-9.715c5.365 0 9.715 4.349 9.715 9.715a9.688 9.688 0 01-.79 3.843l.024-.063a9.768 9.768 0 01-2.09 3.099z"/><path d="M7.125 9.375H9v1.875H7.125V9.375zM15 9.375h1.875v1.875H15V9.375zM15.857 14.4a3.927 3.927 0 01-3.643 2.475H11.786a3.921 3.921 0 01-3.634-2.449l-.009-.026-.06-.15H6.467l.283.707c.824 2.02 2.773 3.418 5.049 3.418h.403a5.437 5.437 0 005.035-3.382l.013-.036.283-.707h-1.616z"/></svg>
